bicons/scalable/documents/document-denied.svg

<?xml version="1.0" encoding="UTF-8" standalone="no"?>
<!-- Created with Inkscape (http://www.inkscape.org/) -->

<svg
   xmlns:dc="http://purl.org/dc/elements/1.1/"
   xmlns:cc="http://creativecommons.org/ns#"
   xmlns:rdf="http://www.w3.org/1999/02/22-rdf-syntax-ns#"
   xmlns:svg="http://www.w3.org/2000/svg"
   xmlns="http://www.w3.org/2000/svg"
   xmlns:xlink="http://www.w3.org/1999/xlink"
   xmlns:sodipodi="http://sodipodi.sourceforge.net/DTD/sodipodi-0.dtd"
   xmlns:inkscape="http://www.inkscape.org/namespaces/inkscape"
   width="210mm"
   height="297mm"
   viewBox="0 0 744.09448819 1052.3622047"
   id="svg2"
   version="1.1"
   inkscape:version="0.91 r13725"
   inkscape:export-xdpi="7.1792889"
   inkscape:export-ydpi="7.1792889"
   sodipodi:docname="document-denied.svg"
   inkscape:export-filename="C:\Users\johannes\Documents\Arbeit\RRZE\github3\bicons\32x32\documents\document-denied.png">
  <defs
     id="defs4">
    <linearGradient
       id="linearGradient2224">
      <stop
         id="stop2226"
         offset="0"
         style="stop-color:#7c7c7c;stop-opacity:1;" />
      <stop
         id="stop2228"
         offset="1"
         style="stop-color:#b8b8b8;stop-opacity:1;" />
    </linearGradient>
    <linearGradient
       id="linearGradient15218">
      <stop
         id="stop15220"
         offset="0"
         style="stop-color:#eeeeef;stop-opacity:1;" />
      <stop
         id="stop2736"
         offset="0.59928656"
         style="stop-color:#d3d7cf;stop-opacity:1;" />
      <stop
         id="stop2738"
         offset="0.82758623"
         style="stop-color:#ffffff;stop-opacity:1;" />
      <stop
         id="stop15222"
         offset="1"
         style="stop-color:#d3d7cf;stop-opacity:1;" />
    </linearGradient>
    <pattern
       y="0"
       x="0"
       height="6"
       width="6"
       patternUnits="userSpaceOnUse"
       id="EMFhbasepattern" />
    <linearGradient
       inkscape:collect="always"
       xlink:href="#linearGradient4321"
       id="linearGradient4201"
       x1="286.38269"
       y1="672.9209"
       x2="532.51678"
       y2="367.74933"
       gradientUnits="userSpaceOnUse"
       gradientTransform="matrix(1.1363532,0,0,1.1363532,-56.47603,-53.25266)" />
    <linearGradient
       id="linearGradient4321"
       inkscape:collect="always">
      <stop
         id="stop4323"
         offset="0"
         style="stop-color:#4e505d;stop-opacity:1;" />
      <stop
         id="stop4325"
         offset="1"
         style="stop-color:#7a8597;stop-opacity:1" />
    </linearGradient>
  </defs>
  <sodipodi:namedview
     id="base"
     pagecolor="#ffffff"
     bordercolor="#666666"
     borderopacity="1.0"
     inkscape:pageopacity="0.0"
     inkscape:pageshadow="2"
     inkscape:zoom="1.4142136"
     inkscape:cx="312.63206"
     inkscape:cy="547.83816"
     inkscape:document-units="px"
     inkscape:current-layer="layer1"
     showgrid="false"
     showguides="true"
     inkscape:guide-bbox="true"
     inkscape:window-width="1600"
     inkscape:window-height="837"
     inkscape:window-x="-4"
     inkscape:window-y="-4"
     inkscape:window-maximized="1"
     inkscape:snap-bbox="true"
     inkscape:bbox-paths="true"
     inkscape:bbox-nodes="true">
    <sodipodi:guide
       position="315.53572,730.17859"
       orientation="0,1"
       id="guide3338" />
    <sodipodi:guide
       position="351.25,330.17858"
       orientation="0,1"
       id="guide3340" />
    <sodipodi:guide
       position="189.10714,408.8393"
       orientation="1,0"
       id="guide3344" />
    <sodipodi:guide
       position="589.04521,468.07945"
       orientation="1,0"
       id="guide3346" />
    <inkscape:grid
       type="xygrid"
       id="grid3440" />
    <sodipodi:guide
       position="589.04521,378.30213"
       orientation="1,0"
       id="guide3411" />
  </sodipodi:namedview>
  <metadata
     id="metadata7">
    <rdf:RDF>
      <cc:Work
         rdf:about="">
        <dc:format>image/svg+xml</dc:format>
        <dc:type
           rdf:resource="http://purl.org/dc/dcmitype/StillImage" />
        <dc:title>document denied</dc:title>
        <dc:date>June 2015</dc:date>
        <dc:creator>
          <cc:Agent>
            <dc:title>Johannes Hechler</dc:title>
          </cc:Agent>
        </dc:creator>
        <dc:rights>
          <cc:Agent>
            <dc:title>Johannes Hechler</dc:title>
          </cc:Agent>
        </dc:rights>
        <dc:publisher>
          <cc:Agent>
            <dc:title>RRZE</dc:title>
          </cc:Agent>
        </dc:publisher>
        <dc:contributor>
          <cc:Agent>
            <dc:title>Ute Weber, Hendrik Eggers</dc:title>
          </cc:Agent>
        </dc:contributor>
      </cc:Work>
    </rdf:RDF>
  </metadata>
  <g
     inkscape:label="Ebene 1"
     inkscape:groupmode="layer"
     id="layer1">
    <rect
       style="fill:none;fill-rule:evenodd;stroke:none;stroke-width:1px;stroke-linecap:butt;stroke-linejoin:miter;stroke-opacity:1"
       id="rect3336-9"
       width="400"
       height="400"
       x="189.10715"
       y="322.18362"
       inkscape:export-xdpi="3.5999999"
       inkscape:export-ydpi="3.5999999" />
    <rect
       style="fill:none;fill-rule:evenodd;stroke:none;stroke-width:1px;stroke-linecap:butt;stroke-linejoin:miter;stroke-opacity:1"
       id="rect3336-0-1"
       width="400"
       height="400"
       x="189.14722"
       y="322.23563"
       inkscape:export-xdpi="3.46731"
       inkscape:export-ydpi="3.46731" />
    <path
       inkscape:connector-curvature="0"
       style="fill:url(#linearGradient4201);fill-opacity:1;fill-rule:evenodd;stroke:none;stroke-width:1px;stroke-linecap:butt;stroke-linejoin:miter;stroke-opacity:1"
       d="m 445.50195,322.20703 -195.13672,0.0195 c -11.38911,-0.0191 -17.07143,5.61131 -17.02343,16.83203 -0.048,93.32378 -0.048,252.41152 -0.0176,366.06836 -0.0303,11.3419 5.68557,17.09623 16.97851,17.01953 l 167.82813,0.043 C 380.46292,700.23406 355.04297,659.3894 355.04297,612.8125 c 0,-69.6563 56.84446,-126.5 126.5,-126.5 23.45721,0 45.45643,6.45273 64.32617,17.66406 l 0,-81.6914 c -5.1936,0.47604 -20.79145,1.82483 -38.26953,2.47656 -10.61175,0.39565 -21.6751,0.54541 -31.7832,-0.0684 -5.05405,-0.30687 -9.84437,-0.77476 -14.74024,-1.74609 -4.89588,-0.97134 -6.72004,-0.57784 -13.7207,-6.60743 -6.19763,-5.33794 -7.3876,-13.41967 -7.72266,-22.32812 -0.33507,-8.90845 0.65028,-17.33283 1.75196,-25.95117 2.20336,-17.23667 4.84051,-35.66105 4.24218,-44.08594 l -0.125,-1.76758 z m 35.65625,50.90625 c -0.0523,0.3951 -0.12783,0.89653 -0.17773,1.28711 -0.48825,3.81953 -0.85419,7.37758 -1.0918,10.41016 3.96859,0.21169 8.5956,0.27568 13.56641,0.23828 -2.04702,-2.04541 -3.98331,-4.0427 -6.06446,-6.08399 -2.23989,-2.19699 -4.00316,-3.70652 -6.23242,-5.85156 z m -1.55859,19.02734 c 0.0686,1.71999 0.6109,1.45369 0,0 z m 1.94336,130.17188 c -50.20552,0 -90.5,40.29376 -90.5,90.5 0,50.20539 40.29462,90.5 90.5,90.5 25.23127,0 47.95593,-10.18035 64.32422,-26.67773 l 0.002,-127.64649 C 529.50086,532.49091 506.77439,522.3125 481.54297,522.3125 Z"
       id="path4244" />
    <path
       inkscape:export-ydpi="3.46731"
       inkscape:export-xdpi="3.46731"
       sodipodi:nodetypes="cczc"
       inkscape:connector-curvature="0"
       id="path4288"
       d="m 460.56372,322.20397 c 4.54635,-1.18483 85.25811,76.62516 85.25811,84.98046 0,0 -75.44211,7.35253 -86.90512,-1.29887 -11.46301,-8.65141 3.62243,-55.86651 1.64701,-83.68159 z"
       style="fill:#99b000;fill-opacity:1;fill-rule:evenodd;stroke:none;stroke-width:1px;stroke-linecap:butt;stroke-linejoin:miter;stroke-opacity:1" />
    <path
       inkscape:connector-curvature="0"
       style="color:#000000;clip-rule:nonzero;display:inline;overflow:visible;visibility:visible;opacity:1;isolation:auto;mix-blend-mode:normal;color-interpolation:sRGB;color-interpolation-filters:linearRGB;solid-color:#000000;solid-opacity:1;fill:#ffffff;fill-opacity:1;fill-rule:evenodd;stroke:none;stroke-width:50;stroke-linecap:butt;stroke-linejoin:miter;stroke-miterlimit:4;stroke-dasharray:none;stroke-dashoffset:0;stroke-opacity:1;color-rendering:auto;image-rendering:auto;shape-rendering:auto;text-rendering:auto;enable-background:accumulate"
       d="m 270.91602,467.62305 c -5.03585,0 -9.08985,4.05398 -9.08985,9.08984 0,5.03586 4.054,9.08984 9.08985,9.08984 l 141.94921,0 c 20.46025,-11.1457 43.86656,-17.49023 68.67774,-17.49023 4.05698,0 8.07368,0.17922 12.04883,0.51172 -1.32982,-0.76032 -2.86801,-1.20117 -4.51563,-1.20117 l -218.16015,0 z m 0,54.54101 c -5.03585,0 -9.08985,4.05399 -9.08985,9.08985 0,5.03585 4.054,9.08984 9.08985,9.08984 l 85.76562,0 c 3.73114,-6.38441 7.93802,-12.45969 12.57031,-18.17969 l -98.33593,0 z m 135.82421,12.13086 c -1.8476,1.76089 -3.64314,3.57485 -5.36328,5.46094 0.009,-0.003 0.0183,-0.006 0.0273,-0.01 1.70852,-1.87233 3.49011,-3.67483 5.32422,-5.42382 0.003,-0.009 0.008,-0.018 0.0117,-0.0273 z m -135.82421,42.4082 c -5.03585,0 -9.08985,4.05399 -9.08985,9.08985 0,5.03585 4.054,9.08984 9.08985,9.08984 l 67.24609,0 c 0.77513,-6.18666 1.94469,-12.25547 3.48437,-18.17969 l -70.73046,0 z m 108.29687,0 c -1.78039,5.03619 -3.20078,10.24121 -4.22656,15.58594 1.02686,-5.34453 2.45036,-10.54943 4.23242,-15.58594 l -0.006,0 z m 39.2207,0 c -3.17379,5.61657 -5.62858,11.71139 -7.22461,18.17969 l 41.50782,0 c 5.03586,0 9.08984,-4.05399 9.08984,-9.08984 0,-5.03586 -4.05398,-9.08985 -9.08984,-9.08985 l -34.28321,0 z"
       id="rect4232" />
    <rect
       style="fill:none;fill-rule:evenodd;stroke:none;stroke-width:1px;stroke-linecap:butt;stroke-linejoin:miter;stroke-opacity:1"
       id="rect3336"
       width="400"
       height="400"
       x="188.88869"
       y="322.00613"
       inkscape:export-xdpi="3.5999999"
       inkscape:export-ydpi="3.5999999" />
    <path
       inkscape:connector-curvature="0"
       id="path3359"
       d="m 588.63869,613.75614 c 0,-59.93127 -48.56888,-108.50001 -108.4997,-108.50001 -59.93053,0 -108.5,48.56874 -108.5,108.50001 0,59.93054 48.56947,108.49999 108.5,108.49999 59.93082,0 108.4997,-48.56945 108.4997,-108.49999 z"
       style="fill:#d9463a;fill-opacity:1;fill-rule:evenodd;stroke:none;stroke-width:16;stroke-miterlimit:4;stroke-dasharray:none;stroke-opacity:1" />
    <rect
       style="fill:none;fill-rule:evenodd;stroke:none;stroke-width:1px;stroke-linecap:butt;stroke-linejoin:miter;stroke-opacity:1"
       id="rect3336-0"
       width="400"
       height="400"
       x="188.92876"
       y="322.05814"
       inkscape:export-xdpi="3.46731"
       inkscape:export-ydpi="3.46731" />
    <rect
       style="color:#000000;clip-rule:nonzero;display:inline;overflow:visible;visibility:visible;opacity:1;isolation:auto;mix-blend-mode:normal;color-interpolation:sRGB;color-interpolation-filters:linearRGB;solid-color:#000000;solid-opacity:1;fill:#ffffff;fill-opacity:1;fill-rule:nonzero;stroke:none;stroke-width:2;stroke-linecap:butt;stroke-linejoin:round;stroke-miterlimit:4;stroke-dasharray:none;stroke-dashoffset:0;stroke-opacity:1;color-rendering:auto;image-rendering:auto;shape-rendering:auto;text-rendering:auto;enable-background:accumulate"
       id="rect4162"
       width="155"
       height="29"
       x="402.88882"
       y="599.0061"
       ry="12.5" />
  </g>
</svg>

<?xml version="1.0" encoding="UTF-8" standalone="no"?>
<!-- Created with Inkscape (http://www.inkscape.org/) -->

<svg
   xmlns:dc="http://purl.org/dc/elements/1.1/"
   xmlns:cc="http://creativecommons.org/ns#"
   xmlns:rdf="http://www.w3.org/1999/02/22-rdf-syntax-ns#"
   xmlns:svg="http://www.w3.org/2000/svg"
   xmlns="http://www.w3.org/2000/svg"
   xmlns:xlink="http://www.w3.org/1999/xlink"
   xmlns:sodipodi="http://sodipodi.sourceforge.net/DTD/sodipodi-0.dtd"
   xmlns:inkscape="http://www.inkscape.org/namespaces/inkscape"
   width="210mm"
   height="297mm"
   viewBox="0 0 744.09448819 1052.3622047"
   id="svg2"
   version="1.1"
   inkscape:version="0.91 r13725"
   inkscape:export-xdpi="7.1792889"
   inkscape:export-ydpi="7.1792889"
   sodipodi:docname="document-denied.svg"
   inkscape:export-filename="C:\Users\johannes\Documents\Arbeit\RRZE\github3\bicons\32x32\documents\document-denied.png">
  <defs
     id="defs4">
    <linearGradient
       id="linearGradient2224">
      <stop
         id="stop2226"
         offset="0"
         style="stop-color:#7c7c7c;stop-opacity:1;" />
      <stop
         id="stop2228"
         offset="1"
         style="stop-color:#b8b8b8;stop-opacity:1;" />
    </linearGradient>
    <linearGradient
       id="linearGradient15218">
      <stop
         id="stop15220"
         offset="0"
         style="stop-color:#eeeeef;stop-opacity:1;" />
      <stop
         id="stop2736"
         offset="0.59928656"
         style="stop-color:#d3d7cf;stop-opacity:1;" />
      <stop
         id="stop2738"
         offset="0.82758623"
         style="stop-color:#ffffff;stop-opacity:1;" />
      <stop
         id="stop15222"
         offset="1"
         style="stop-color:#d3d7cf;stop-opacity:1;" />
    </linearGradient>
    <pattern
       y="0"
       x="0"
       height="6"
       width="6"
       patternUnits="userSpaceOnUse"
       id="EMFhbasepattern" />
    <linearGradient
       inkscape:collect="always"
       xlink:href="#linearGradient4321"
       id="linearGradient4201"
       x1="286.38269"
       y1="672.9209"
       x2="532.51678"
       y2="367.74933"
       gradientUnits="userSpaceOnUse"
       gradientTransform="matrix(1.1363532,0,0,1.1363532,-56.47603,-53.25266)" />
    <linearGradient
       id="linearGradient4321"
       inkscape:collect="always">
      <stop
         id="stop4323"
         offset="0"
         style="stop-color:#4e505d;stop-opacity:1;" />
      <stop
         id="stop4325"
         offset="1"
         style="stop-color:#7a8597;stop-opacity:1" />
    </linearGradient>
  </defs>
  <sodipodi:namedview
     id="base"
     pagecolor="#ffffff"
     bordercolor="#666666"
     borderopacity="1.0"
     inkscape:pageopacity="0.0"
     inkscape:pageshadow="2"
     inkscape:zoom="1"
     inkscape:cx="336.48675"
     inkscape:cy="564.98258"
     inkscape:document-units="px"
     inkscape:current-layer="layer1"
     showgrid="false"
     showguides="true"
     inkscape:guide-bbox="true"
     inkscape:window-width="1366"
     inkscape:window-height="721"
     inkscape:window-x="-4"
     inkscape:window-y="-4"
     inkscape:window-maximized="1"
     inkscape:snap-bbox="true"
     inkscape:bbox-paths="true"
     inkscape:bbox-nodes="true">
    <sodipodi:guide
       position="315.53572,730.17859"
       orientation="0,1"
       id="guide3338" />
    <sodipodi:guide
       position="351.25,330.17858"
       orientation="0,1"
       id="guide3340" />
    <sodipodi:guide
       position="189.10714,408.8393"
       orientation="1,0"
       id="guide3344" />
    <sodipodi:guide
       position="589.04521,468.07945"
       orientation="1,0"
       id="guide3346" />
    <inkscape:grid
       type="xygrid"
       id="grid3440" />
    <sodipodi:guide
       position="589.04521,378.30213"
       orientation="1,0"
       id="guide3411" />
  </sodipodi:namedview>
  <metadata
     id="metadata7">
    <rdf:RDF>
      <cc:Work
         rdf:about="">
        <dc:format>image/svg+xml</dc:format>
        <dc:type
           rdf:resource="http://purl.org/dc/dcmitype/StillImage" />
        <dc:title>document denied</dc:title>
        <dc:date>June 2015</dc:date>
        <dc:creator>
          <cc:Agent>
            <dc:title>Johannes Hechler</dc:title>
          </cc:Agent>
        </dc:creator>
        <dc:rights>
          <cc:Agent>
            <dc:title>Johannes Hechler</dc:title>
          </cc:Agent>
        </dc:rights>
        <dc:publisher>
          <cc:Agent>
            <dc:title>RRZE</dc:title>
          </cc:Agent>
        </dc:publisher>
        <dc:contributor>
          <cc:Agent>
            <dc:title>Ute Weber, Hendrik Eggers</dc:title>
          </cc:Agent>
        </dc:contributor>
      </cc:Work>
    </rdf:RDF>
  </metadata>
  <g
     inkscape:label="Ebene 1"
     inkscape:groupmode="layer"
     id="layer1">
    <g
       id="g4224">
      <rect
         inkscape:export-ydpi="3.5999999"
         inkscape:export-xdpi="3.5999999"
         y="322.18362"
         x="189.10715"
         height="400"
         width="400"
         id="rect3336-9"
         style="fill:none;fill-rule:evenodd;stroke:none;stroke-width:1px;stroke-linecap:butt;stroke-linejoin:miter;stroke-opacity:1" />
      <rect
         inkscape:export-ydpi="3.46731"
         inkscape:export-xdpi="3.46731"
         y="322.23563"
         x="189.14722"
         height="400"
         width="400"
         id="rect3336-0-1"
         style="fill:none;fill-rule:evenodd;stroke:none;stroke-width:1px;stroke-linecap:butt;stroke-linejoin:miter;stroke-opacity:1" />
      <path
         id="path4244"
         d="M 445.50195 322.20703 L 250.36523 322.22656 C 238.97612 322.20746 233.2938 327.83787 233.3418 339.05859 C 233.2938 432.38237 233.29382 591.47011 233.32422 705.12695 C 233.29392 716.46885 239.00979 722.22318 250.30273 722.14648 L 418.13086 722.18945 C 380.46292 700.23406 355.04297 659.3894 355.04297 612.8125 C 355.04297 543.1562 411.88743 486.3125 481.54297 486.3125 C 505.00018 486.3125 526.9994 492.76523 545.86914 503.97656 L 545.86914 422.28516 C 540.67554 422.7612 525.07769 424.10999 507.59961 424.76172 C 496.98786 425.15737 485.92451 425.30713 475.81641 424.69336 C 470.76236 424.38649 465.97204 423.9186 461.07617 422.94727 C 456.18029 421.97593 454.35613 422.36943 447.35547 416.33984 C 441.15784 411.0019 439.96787 402.92017 439.63281 394.01172 C 439.29774 385.10327 440.28309 376.67889 441.38477 368.06055 C 443.58813 350.82388 446.22528 332.3995 445.62695 323.97461 L 445.50195 322.20703 z M 481.1582 373.11328 C 481.1059 373.50838 481.03037 374.00981 480.98047 374.40039 C 480.49222 378.21992 480.12628 381.77797 479.88867 384.81055 C 483.85726 385.02224 488.48427 385.08623 493.45508 385.04883 C 491.40806 383.00342 489.47177 381.00613 487.39062 378.96484 C 485.15073 376.76785 483.38746 375.25832 481.1582 373.11328 z M 479.59961 392.14062 C 479.66821 393.86061 480.21051 393.59431 479.59961 392.14062 z M 481.54297 522.3125 C 431.33745 522.3125 391.04297 562.60626 391.04297 612.8125 C 391.04297 663.01789 431.33759 703.3125 481.54297 703.3125 C 506.77424 703.3125 529.4989 693.13215 545.86719 676.63477 L 545.86914 548.98828 C 529.50086 532.49091 506.77439 522.3125 481.54297 522.3125 z "
         style="fill:url(#linearGradient4201);fill-opacity:1;fill-rule:evenodd;stroke:none;stroke-width:1px;stroke-linecap:butt;stroke-linejoin:miter;stroke-opacity:1" />
      <path
         style="fill:#99b000;fill-opacity:1;fill-rule:evenodd;stroke:none;stroke-width:1px;stroke-linecap:butt;stroke-linejoin:miter;stroke-opacity:1"
         d="m 460.56372,322.20397 c 4.54635,-1.18483 85.25811,76.62516 85.25811,84.98046 0,0 -75.44211,7.35253 -86.90512,-1.29887 -11.46301,-8.65141 3.62243,-55.86651 1.64701,-83.68159 z"
         id="path4288"
         inkscape:connector-curvature="0"
         sodipodi:nodetypes="cczc"
         inkscape:export-xdpi="3.46731"
         inkscape:export-ydpi="3.46731" />
      <path
         id="rect4232"
         d="M 270.91602 467.62305 C 265.88017 467.62305 261.82617 471.67703 261.82617 476.71289 C 261.82617 481.74875 265.88017 485.80273 270.91602 485.80273 L 412.86523 485.80273 C 433.32548 474.65703 456.73179 468.3125 481.54297 468.3125 C 485.59995 468.3125 489.61665 468.49172 493.5918 468.82422 C 492.26198 468.0639 490.72379 467.62305 489.07617 467.62305 L 270.91602 467.62305 z M 270.91602 522.16406 C 265.88017 522.16406 261.82617 526.21805 261.82617 531.25391 C 261.82617 536.28976 265.88017 540.34375 270.91602 540.34375 L 356.68164 540.34375 C 360.41278 533.95934 364.61966 527.88406 369.25195 522.16406 L 270.91602 522.16406 z M 406.74023 534.29492 C 404.89263 536.05581 403.09709 537.86977 401.37695 539.75586 C 401.38601 539.75247 401.39525 539.74952 401.4043 539.74609 C 403.11282 537.87376 404.89441 536.07126 406.72852 534.32227 C 406.73185 534.31294 406.73693 534.30426 406.74023 534.29492 z M 270.91602 576.70312 C 265.88017 576.70312 261.82617 580.75711 261.82617 585.79297 C 261.82617 590.82882 265.88017 594.88281 270.91602 594.88281 L 338.16211 594.88281 C 338.93724 588.69615 340.1068 582.62734 341.64648 576.70312 L 270.91602 576.70312 z M 379.21289 576.70312 C 377.4325 581.73931 376.01211 586.94433 374.98633 592.28906 C 376.01319 586.94453 377.43669 581.73963 379.21875 576.70312 L 379.21289 576.70312 z M 418.43359 576.70312 C 415.2598 582.31969 412.80501 588.41451 411.20898 594.88281 L 452.7168 594.88281 C 457.75266 594.88281 461.80664 590.82882 461.80664 585.79297 C 461.80664 580.75711 457.75266 576.70312 452.7168 576.70312 L 418.43359 576.70312 z "
         style="color:#000000;clip-rule:nonzero;display:inline;overflow:visible;visibility:visible;opacity:1;isolation:auto;mix-blend-mode:normal;color-interpolation:sRGB;color-interpolation-filters:linearRGB;solid-color:#000000;solid-opacity:1;fill:#ffffff;fill-opacity:1;fill-rule:evenodd;stroke:none;stroke-width:50;stroke-linecap:butt;stroke-linejoin:miter;stroke-miterlimit:4;stroke-dasharray:none;stroke-dashoffset:0;stroke-opacity:1;color-rendering:auto;image-rendering:auto;shape-rendering:auto;text-rendering:auto;enable-background:accumulate" />
      <rect
         inkscape:export-ydpi="3.5999999"
         inkscape:export-xdpi="3.5999999"
         y="322.00613"
         x="188.88869"
         height="400"
         width="400"
         id="rect3336"
         style="fill:none;fill-rule:evenodd;stroke:none;stroke-width:1px;stroke-linecap:butt;stroke-linejoin:miter;stroke-opacity:1" />
      <rect
         inkscape:export-ydpi="3.46731"
         inkscape:export-xdpi="3.46731"
         y="322.05814"
         x="188.92876"
         height="400"
         width="400"
         id="rect3336-0"
         style="fill:none;fill-rule:evenodd;stroke:none;stroke-width:1px;stroke-linecap:butt;stroke-linejoin:miter;stroke-opacity:1" />
      <path
         style="fill:#d9463a;fill-opacity:1;fill-rule:evenodd;stroke:none;stroke-width:16;stroke-miterlimit:4;stroke-dasharray:none;stroke-opacity:1"
         d="m 590.04262,612.81205 c 0,-59.93127 -48.56888,-108.50001 -108.4997,-108.50001 -59.93053,0 -108.5,48.56874 -108.5,108.50001 0,59.93054 48.56947,108.49999 108.5,108.49999 59.93082,0 108.4997,-48.56945 108.4997,-108.49999 z"
         id="path3359"
         inkscape:connector-curvature="0" />
      <path
         sodipodi:nodetypes="cccscsccsssscscsccsccc"
         inkscape:connector-curvature="0"
         id="rect4217"
         d="m 547.70321,668.31144 c 4.82397,-4.81439 4.82029,-12.56737 -0.002,-17.38174 l -38.11094,-38.03507 38.60744,-38.53058 c 4.47216,-4.46324 4.4685,-11.65064 -0.002,-16.11389 l -11.74435,-11.72018 c -4.47214,-4.46325 -11.67391,-4.46692 -16.14607,-0.002 l -38.60738,38.53062 -38.39934,-38.32291 c -4.82397,-4.81434 -12.58876,-4.81436 -17.41276,0 l -10.62289,10.60177 c -4.82399,4.81436 -4.82396,12.56372 0,17.37808 l 38.39935,38.32288 -38.65489,38.57793 c -4.47215,4.46324 -4.46849,11.65067 0.002,16.11391 l 11.74357,11.91977 c 4.43424,4.50077 11.67389,4.46688 16.14604,0.002 l 38.65501,-38.77738 38.26093,38.53401 c 4.80196,4.83624 12.59244,4.81803 17.41641,0.002 l 10.47294,-11.10068 z"
         style="opacity:1;fill:#ffffff;fill-opacity:1;stroke:none;stroke-width:0;stroke-linecap:square;stroke-linejoin:round;stroke-miterlimit:4;stroke-dasharray:none;stroke-opacity:1" />
    </g>
  </g>
</svg>
